!!!CDT:
!!!PTL: L'Armida del Tasso posta in musica a cinque voci, col suo basso per suonare
!!!PPP: Venice
!!!PPR: Alessandro Vincenti
!!!PDT: 1629
!!!PUB-format:
!!!RISM: E 741
!!!AGN: Madrigal
!!!SCT: Tsg16065b
!!!SCA: Tsg16065b
!!!original-voices: 5+bc
!!!extant-voices: 5+bc
!!!complete: Y
!!!final: (G)G
!!!COM: Eredi, Francesco
!!!OTL: Misera Armida, allor dovevi, e degno
**kern	**fb	**kern	**text	**kern	**text	**kern	**text	**kern	**text	**kern	**text
*part6	*part6	*part5	*part5	*part4	*part4	*part3	*part3	*part2	*part2	*part1	*part1
*staff6	*staff6	*staff5	*staff5	*staff4	*staff4	*staff3	*staff3	*staff2	*staff2	*staff1	*staff1
*I"Basso continuo	*	*I"Basso	*	*I"Tenore	*	*I"Quinto	*	*I"Alto	*	*I"Canto	*
*I'Bc	*	*I'B	*	*I'T	*	*I'V	*	*I'A	*	*I'C	*
*oclefF4	*	*oclefF4	*	*oclefC4	*	*oclefC4	*	*oclefC3	*	*oclefC1	*
*clefF4	*	*clefF4	*	*clefGv2	*	*clefGv2	*	*clefGv2	*	*clefG2	*
*k[b-]	*	*k[b-]	*	*k[b-]	*	*k[b-]	*	*k[b-]	*	*k[b-]	*
*F:	*	*F:	*	*F:	*	*F:	*	*F:	*	*F:	*
*omet(C)	*	*omet(C)	*	*omet(C)	*	*omet(C)	*	*omet(C)	*	*omet(C)	*
*M4/4	*	*M4/4	*	*M4/4	*	*M4/4	*	*M4/4	*	*M4/4	*
=1	=1	=1	=1	=1	=1	=1	=1	=1	=1	=1	=1
!!LO:TX:a:t=Ottava parte
2G	.	1r	.	1r	.	1r	.	1r	.	2.dd	Mi-
2F#i	.	.	.	.	.	.	.	.	.	.	.
.	.	.	.	.	.	.	.	.	.	8a	-se-
.	.	.	.	.	.	.	.	.	.	8a	-ra Ar-
=2	=2	=2	=2	=2	=2	=2	=2	=2	=2	=2	=2
2.F#X	.	4r	.	4r	.	4r	.	4r	.	4a	-mi-
.	.	2F#X	Mi-	2A	Mi-	2d	Mi-	2a	Mi-	4a	-da,
.	.	.	.	.	.	.	.	.	.	2r	.
4F#X	.	8F#X	-se-	8A	-se-	8A	-se-	8d	-se-	.	.
.	.	8F#X	-ra Ar-	8A	-ra Ar-	8A	-ra Ar-	8d	-ra Ar-	.	.
=3	=3	=3	=3	=3	=3	=3	=3	=3	=3	=3	=3
2G	#	4G	-mi-	4G	-mi-	4BnX	-mi-	4d	-mi-	4r	.
.	.	4G	-da	4G	-da,	4BnXi	-da,	4d	-da,	4g	al-
4F	.	2r	.	2r	.	2r	.	2r	.	8.cc	-l’hor,
.	.	.	.	.	.	.	.	.	.	16b-y	<al-
4G	.	.	.	.	.	.	.	.	.	8.b-y	-l’hor>
.	.	.	.	.	.	.	.	.	.	16a	do-
=4	=4	=4	=4	=4	=4	=4	=4	=4	=4	=4	=4
2D	#	4r	.	4r	.	4r	.	4r	.	4a	-ve-
.	.	4D	al-	4A	al-	4d	al-	4f#X	al-	4a	-vi,
4G	.	8.G	-l’hor,	8.B-y	-l’hor,	8.d	-l’hor,	8.g	-l’hor,	2r	.
.	.	16G	al-	16B-y	<al-	16d	<al-	16g	al-	.	.
8.E-XL	.	8.E-X	-l’hor	8.B-y	-l’hor>	8.e-X	-l’hor>	8.g	-l’hor	.	.
16FJ	.	16F	do-	16A	do-	16c	do-	16fnX	do-	.	.
=5	=5	=5	=5	=5	=5	=5	=5	=5	=5	=5	=5
2BB-y	.	4BB-y	-ve-	4F	-ve-	4d	-ve-	4f	-ve-	4r	.
.	.	4BB-y	-vi,	4F	-vi,	4d	-vi,	4f	-vi,	4dd	e
4E-X	.	2r	.	2r	.	2r	.	2r	.	4g	de-
4D	#	.	.	.	.	.	.	.	.	8.g	-gno
.	.	.	.	.	.	.	.	.	.	16f#X	Ben
=6	=6	=6	=6	=6	=6	=6	=6	=6	=6	=6	=6
2GG	.	1r	.	1r	.	1r	.	2r	.	4g	e-
.	.	.	.	.	.	.	.	.	.	4g	-ra,
2FF	.	.	.	.	.	.	.	4r	.	2cc	in
.	.	.	.	.	.	.	.	[4a	in	.	.
=7	=7	=7	=7	=7	=7	=7	=7	=7	=7	=7	=7
2GG	9:8	1r	.	1r	.	1r	.	4a]	.	4.b-y	quel
.	.	.	.	.	.	.	.	4.g	quel	.	.
.	.	.	.	.	.	.	.	.	.	8b-y	cru-
2D	.	.	.	.	.	.	.	.	.	4a	-del
.	.	.	.	.	.	.	.	8g	cru-	.	.
.	.	.	.	.	.	.	.	[4f	-del	4a	in-
=8	=8	=8	=8	=8	=8	=8	=8	=8	=8	=8	=8
4BB-y	.	1r	.	1r	.	1r	.	4f]	.	4b-y	-cru-
4FF	.	.	.	.	.	.	.	4f	in-	4a	-de-
[2C	.	.	.	.	.	.	.	4.f	-cru-	[2g	-li-
.	.	.	.	.	.	.	.	8e	-de-	.	.
=9	=9	=9	=9	=9	=9	=9	=9	=9	=9	=9	=9
2C]	.	2r	.	2r	.	1r	.	2e	-li-	2g]	.
4FF	.	4r	.	4r	.	.	.	4f	-re,	4f	-re,
4F	.	4F	e	4c	e	.	.	4f	e	4a	e
=10	=10	=10	=10	=10	=10	=10	=10	=10	=10	=10	=10
4B-y	.	4B-y	de-	4d	de-	1r	.	4f	de-	4b-y	de-
4G	.	8.G	-gno	8.d	-gno	.	.	8.g	-gno	8.b-y	-gno
.	.	16F#X	Ben	16d	Ben	.	.	16a	Ben	16a	Ben
2A	.	2A	e-	4d	e-	.	.	2e	e-	2a	e-
.	.	.	.	4c#X	.	.	.	.	.	.	.
=11	=11	=11	=11	=11	=11	=11	=11	=11	=11	=11	=11
4D	.	2D	-ra,	4d	-ra,	4r	.	2d	-ra,	4a	-ra,
4BB-y	.	.	.	2d	in	4f	in	.	.	4r	.
2C	9:8	2r	.	.	.	4.e-X	quel	2r	.	2r	.
.	.	.	.	[4c	quel	.	.	.	.	.	.
.	.	.	.	.	.	8e-i	cru-	.	.	.	.
=12	=12	=12	=12	=12	=12	=12	=12	=12	=12	=12	=12
2GG	.	1r	.	8c]	.	4.d	-del	1r	.	1r	.
.	.	.	.	8c	cru-	.	.	.	.	.	.
.	.	.	.	2B-y	-del	.	.	.	.	.	.
.	.	.	.	.	.	8d	in-	.	.	.	.
4E-X	.	.	.	.	.	4e-X	-cru-	.	.	.	.
4BB-y	.	.	.	4B-y	in-	4d	-de-	.	.	.	.
=13	=13	=13	=13	=13	=13	=13	=13	=13	=13	=13	=13
1F	.	1r	.	4.B-y	-cru-	1c	-li-	1r	.	1r	.
.	.	.	.	8A	-de-	.	.	.	.	.	.
.	.	.	.	2A	-li-	.	.	.	.	.	.
=14	=14	=14	=14	=14	=14	=14	=14	=14	=14	=14	=14
2.BB-y	.	2r	.	2.B-y	-re	2B-y	-re	2r	.	2r	.
.	.	4r	.	.	.	4r	.	4r	.	4r	.
4B-y	.	4B-y	Che	4B-y	Che	4d	Che	4f	Che	4b-y	Che
=15	=15	=15	=15	=15	=15	=15	=15	=15	=15	=15	=15
8FL	.	8F	tu	8A	tu	8c	tu	8f	tu	8cc	tu
8GJ	.	8G	pri-	8B-y	pri-	8B-y	pri-	8d	pri-	8g	pri-
8DL	.	8D	-gion	8d	-gion	8A	-gion	8d	-gion	8a	-gion
8GJ	.	8G	l’ha-	8B-y	l’ha-	8B-y	l’ha-	8d	l’ha-	8g	l’ha-
4F	.	4F	-ve-	4A	-ve-	4c	-ve-	4f	-ve-	4a	-ve-
4F	.	4F	-sti;	4A	-sti;	4c	-sti;	4f	-sti;	4a	-sti;
=16	=16	=16	=16	=16	=16	=16	=16	=16	=16	=16	=16
2D	.	4r	.	2r	.	1r	.	1r	.	1r	.
.	.	4D	hor	.	.	.	.	.	.	.	.
4D	.	4D	tar-	4r	.	.	.	.	.	.	.
4C	.	4C	-do	4A	hor	.	.	.	.	.	.
=17	=17	=17	=17	=17	=17	=17	=17	=17	=17	=17	=17
2BB-y	7:6	2BB-y	sde-	4A	tar-	4r	.	4r	.	1r	.
.	.	.	.	4G	-do	4d	hor	4d	hor	.	.
4AA	.	4AA	-gno	2A	sde-	4d	tar-	4f	tar-	.	.
4AA	.	4AA	T’in-	.	.	4c	-do	4e	-do	.	.
=18	=18	=18	=18	=18	=18	=18	=18	=18	=18	=18	=18
2BB-y	.	8BB-yL	-fiam-	4F	-gno	2B-y	sde-	8dL	sde-	4r	.
.	.	8CJ	.	.	.	.	.	8eJ	.	.	.
.	.	8DL	.	4F	T’in-	.	.	2f	.	4dd	hor
.	.	8EJ	.	.	.	.	.	.	.	.	.
2F	.	8FL	.	8AL	-fiam-	2A	-gno	.	.	4dd	tar-
.	.	8GJ	.	8B-yJ	.	.	.	.	.	.	.
.	.	8AL	.	8cL	.	.	.	4f	-gno	4cc	-do
.	.	8FJ	.	8AJ	.	.	.	.	.	.	.
=19	=19	=19	=19	=19	=19	=19	=19	=19	=19	=19	=19
2G	.	2G	.	8B-yL	.	1r	.	4d	T’in-	2b-y	sde-
.	.	.	.	8cJ	.	.	.	.	.	.	.
.	.	.	.	2d	.	.	.	8dL	-fiam-	.	.
.	.	.	.	.	.	.	.	8eJ	.	.	.
2D	.	2D	-ma	.	.	.	.	8fL	.	2a	-gno
.	.	.	.	.	.	.	.	8gJ	.	.	.
.	.	.	.	4A	-ma	.	.	8aL	.	.	.
.	.	.	.	.	.	.	.	8fJ	.	.	.
=20	=20	=20	=20	=20	=20	=20	=20	=20	=20	=20	=20
2GG	.	1r	.	1r	.	4G	T’in-	2g	.	4r	.
.	.	.	.	.	.	8GL	-fiam-	.	.	4g	T’in-
.	.	.	.	.	.	8AJ	.	.	.	.	.
2BB-y	.	.	.	.	.	8B-yL	.	2f	-ma	8dL	-fiam-
.	.	.	.	.	.	8cJ	.	.	.	8eJ	.
.	.	.	.	.	.	8dL	.	.	.	8fL	.
.	.	.	.	.	.	8eJ	.	.	.	8gJ	.
=21	=21	=21	=21	=21	=21	=21	=21	=21	=21	=21	=21
2AA	.	1r	.	2r	.	4f	.	1r	.	8aL	.
.	.	.	.	.	.	.	.	.	.	8b-yJ	.
.	.	.	.	.	.	4e	.	.	.	8ccL	.
.	.	.	.	.	.	.	.	.	.	8aJ	.
2D	.	.	.	4r	.	2d	-ma	.	.	4b-y	.
.	.	.	.	[4A	e	.	.	.	.	4a	-ma
=22	=22	=22	=22	=22	=22	=22	=22	=22	=22	=22	=22
2D	6	2D	e	4A]	.	2r	.	1r	.	1r	.
.	.	.	.	4.B-y	mo-	.	.	.	.	.	.
4.E-X	.	4.E-X	mo-	.	.	4B-y	e	.	.	.	.
.	.	.	.	8A	-vi	.	.	.	.	.	.
.	.	.	.	8G	ne-	[4c	mo-	.	.	.	.
8D	.	8D	-vi	8G	-ghit-	.	.	.	.	.	.
=23	=23	=23	=23	=23	=23	=23	=23	=23	=23	=23	=23
4C	6	8C	ne-	4A	-to-	8c]	.	2r	.	4r	.
.	.	8C	-ghit-	.	.	8B-y	-vi	.	.	.	.
2D	.	2D	-to-	4A	-sa	8A	ne-	.	.	2a	e
.	.	.	.	.	.	8G	-ghit-	.	.	.	.
.	.	.	.	4.F	l’i-	4A	-to-	2d	e	.	.
4BB-y	.	4BB-y	-sa	.	.	4d	-sa	.	.	[4b-y	mo-
.	.	.	.	8D	.	.	.	.	.	.	.
=24	=24	=24	=24	=24	=24	=24	=24	=24	=24	=24	=24
2C	-	2C	l’i-	4G	.	2c	l’i-	4.e-X	mo-	8b-]	.
.	.	.	.	.	.	.	.	.	.	8a	-vi
.	.	.	.	4G	-re,	.	.	.	.	8g	ne-
.	.	.	.	.	.	.	.	8d	-vi	8g	-ghit-
4FF	.	4FF	-re,	4r	.	2A	-re,	8c	ne-	4.a	-to-
.	.	.	.	.	.	.	.	8c	-ghit-	.	.
4F	6	4F	<e	4A	<e	.	.	[4d	-to-	.	.
.	.	.	.	.	.	.	.	.	.	8a	-sa
=25	=25	=25	=25	=25	=25	=25	=25	=25	=25	=25	=25
4.G	.	4.G	mo-	4.B-y	mo-	4r	.	8d]	.	4g	l’i-
.	.	.	.	.	.	.	.	8d	-sa	.	.
.	.	.	.	.	.	4G	<T’in-	2g	l’i-	4g	-re,
8F	.	8F	-vi	8A	-vi	.	.	.	.	.	.
4E	.	8E	ne-	8G	ne-	4.c	-fiam-	.	.	4r	.
.	.	8E	-ghit-	8G	-ghit-	.	.	.	.	.	.
[4F	.	[4F	-to-	[4A	-to-	.	.	4f	-re,	[4cc	<e
.	.	.	.	.	.	8B-y	.	.	.	.	.
=26	=26	=26	=26	=26	=26	=26	=26	=26	=26	=26	=26
4F]	.	4F]	.	4A]	.	8A	.	4r	.	4cc]	.
.	.	.	.	.	.	8F	-ma e	.	.	.	.
4D	.	4D	-sa	4A	-sa	4A	mo-	4f	<e	4.dd	mo-
2G	#	2G	l’i-	2G	l’i-	4B-y	-vi>	4.g	mo-	.	.
.	.	.	.	.	.	.	.	.	.	8cc	-vi
.	.	.	.	.	.	8d	ne-	.	.	8bnX	ne-
.	.	.	.	.	.	8d	-ghit-	8f	-vi	8bnXi	-ghit-
=27	=27	=27	=27	=27	=27	=27	=27	=27	=27	=27	=27
1C	.	1C	-re>	1G	-re>	2c	-to-	8e	ne-	2.cc	-to-
.	.	.	.	.	.	.	.	8d	-ghit-	.	.
.	.	.	.	.	.	.	.	4.e	-to-	.	.
.	.	.	.	.	.	2c	-sa	.	.	.	.
.	.	.	.	.	.	.	.	8f	-sa	.	.
.	.	.	.	.	.	.	.	[4g	l’i-	4b-y	-sa
=28	=28	=28	=28	=28	=28	=28	=28	=28	=28	=28	=28
2D	#	1r	.	1r	.	2d	l’i-	4g]	.	2a	l’i-
.	.	.	.	.	.	.	.	4f#X	.	.	.
2GG	.	.	.	.	.	2G	-re	2g	-re>	2g	-re>
=29	=29	=29	=29	=29	=29	=29	=29	=29	=29	=29	=29
2D	#	1r	.	1r	.	1r	.	1r	.	2r	.
[2D	#	.	.	.	.	.	.	.	.	[2f#X	Pur
=30	=30	=30	=30	=30	=30	=30	=30	=30	=30	=30	=30
4D]	.	1r	.	1r	.	1r	.	1r	.	4f#]	.
4D	#	.	.	.	.	.	.	.	.	8f#X	se
.	.	.	.	.	.	.	.	.	.	8f#i	bel-
4D	#	.	.	.	.	.	.	.	.	4f#X	-tà
4GG	.	.	.	.	.	.	.	.	.	4g	può
=31	=31	=31	=31	=31	=31	=31	=31	=31	=31	=31	=31
2.D	#	1r	.	4r	.	4r	.	1r	.	4a	nul-
.	.	.	.	2F#X	Pur	2A	Pur	.	.	4a	-la
.	.	.	.	.	.	.	.	.	.	2r	.
4D	#	.	.	8F#X	se	8A	se	.	.	.	.
.	.	.	.	8F#i	bel-	8A	bel-	.	.	.	.
=32	=32	=32	=32	=32	=32	=32	=32	=32	=32	=32	=32
4D	#	1r	.	4F#X	-tà	4A	-tà	1r	.	2r	.
4G	.	.	.	4G	può	4B-y	può	.	.	.	.
2F	.	.	.	4A	nul-	4c	nul-	.	.	4r	.
.	.	.	.	4A	-la	4c	-la	.	.	4a	o
=33	=33	=33	=33	=33	=33	=33	=33	=33	=33	=33	=33
4G	.	1r	.	2r	.	2r	.	1r	.	4.b-y	scal-
4G	.	.	.	.	.	.	.	.	.	.	.
.	.	.	.	.	.	.	.	.	.	8g	-tro in-
[2F	.	.	.	4r	.	4r	.	.	.	4cc	-ge-
.	.	.	.	4A	o	4c	o	.	.	4cc	-gno
=34	=34	=34	=34	=34	=34	=34	=34	=34	=34	=34	=34
4F]	.	1r	.	4.A	scal-	4.c	scal-	2r	.	1r	.
4F	.	.	.	.	.	.	.	.	.	.	.
.	.	.	.	8G	-tro in-	8B-y	-tro in-	.	.	.	.
2BB-y	.	.	.	4B-y	-ge-	4d	-ge-	4r	.	.	.
.	.	.	.	4B-y	-gno	4d	-gno	8f	Non	.	.
.	.	.	.	.	.	.	.	8f	fia	.	.
=35	=35	=35	=35	=35	=35	=35	=35	=35	=35	=35	=35
4BB-y	.	4r	.	4r	.	4r	.	4f	vo-	4r	.
4BB-y	.	8BB-y	Non	8F	Non	8d	Non	8f	-to	8b-y	Non
.	.	8BB-y	fia	8F	fia	8d	fia	8f	d’ef-	8b-y	fia
2BB-y	.	4BB-y	vo-	4B-y	vo-	4d	vo-	2f	-fet-	4b-y	vo-
.	.	8BB-y	-to	8B-y	-to	8d	-to	.	.	8b-y	-to
.	.	8BB-y	d’ef-	8B-y	d’ef-	8d	d’ef-	.	.	8b-y	d’ef-
=36	=36	=36	=36	=36	=36	=36	=36	=36	=36	=36	=36
4.E-X	.	4.E-X	-fet-	2G	-fet-	4B-y	-fet-	4g	-to il	4.b-y	-fet-
.	.	.	.	.	.	4B-y	-to il	2g	mio	.	.
8E-i	.	8E-i	-to il	.	.	.	.	.	.	8b-y	-to il
4C	.	4C	mio	4G	-to il	4e-X	mio	.	.	4cc	mio
4C	.	4C	de-	[4c	mio	4e-i	de-	4g	de-	4cc	de-
=37	=37	=37	=37	=37	=37	=37	=37	=37	=37	=37	=37
1G	#	1G	-si-	4c]	.	2d	-si-	1g	-si-	1dd	-si-
.	.	.	.	4BnXi	de-	.	.	.	.	.	.
.	.	.	.	2BnX	-si-	2G	-re	.	.	.	.
=38	=38	=38	=38	=38	=38	=38	=38	=38	=38	=38	=38
1C	.	1C	-re	1c	-re	1r	.	1g	-re	1cc	-re
=39	=39	=39	=39	=39	=39	=39	=39	=39	=39	=39	=39
2r	.	1r	.	1r	.	1r	.	1r	.	2r	.
[2BBnX	.	.	.	.	.	.	.	.	.	(>[2dd	O
=40	=40	=40	=40	=40	=40	=40	=40	=40	=40	=40	=40
4BB]	.	1r	.	1r	.	1r	.	1r	.	4dd]	.
2C	-	.	.	.	.	.	.	.	.	2ee-X)	.
4C	.	.	.	.	.	.	.	.	.	8g	mia
.	.	.	.	.	.	.	.	.	.	8g	sprez-
=41	=41	=41	=41	=41	=41	=41	=41	=41	=41	=41	=41
4D	.	2r	.	1r	.	2r	.	1r	.	4.g	-za-
4D	.	.	.	.	.	.	.	.	.	.	.
.	.	.	.	.	.	.	.	.	.	8f#X	-ta
4GG	.	4r	.	.	.	4r	.	.	.	4g	for-
4G	.	8GL	O	.	.	8B-yL	O	.	.	4g	-ma,
.	.	8AJ	.	.	.	8cJ	.	.	.	.	.
=42	=42	=42	=42	=42	=42	=42	=42	=42	=42	=42	=42
2.B-y	.	2.B-y	.	4r	.	2.d	.	4r	.	4r	.
.	.	.	.	8dL	O	.	.	8dL	O	8b-yL	<O
.	.	.	.	8cJ	.	.	.	8eJ	.	8ccJ	.
.	.	.	.	4B-y	.	.	.	4f	.	4dd	.
4E-X	.	8E-X	mia	8B-y	mia	8e-X	mia	8g	mia	8b-y	mia
.	.	8E-i	sprez-	8B-y	sprez-	8e-i	sprez-	8g	sprez-	8b-y	sprez-
=43	=43	=43	=43	=43	=43	=43	=43	=43	=43	=43	=43
4.E-i	.	4.E-i	-za-	4B-y	-za-	4.e-i	-za-	4.g	-za-	4.b-y	-za-
.	.	.	.	4c	-ta	.	.	.	.	.	.
8F	.	8F	-ta	.	.	8c	-ta	8f	-ta	8a	-ta
4BB-y	.	4BB-y	for-	4B-y	for-	4d	for-	4f	for-	4b-y	for-
4BB-y	.	4BB-y	-ma	4B-y	-ma	4d	-ma	4f	-ma	8b-y	-ma>
.	.	.	.	.	.	.	.	.	.	8f	a
=44	=44	=44	=44	=44	=44	=44	=44	=44	=44	=44	=44
2GG	.	1r	.	1r	.	1r	.	1r	.	4.b-y	te,
.	.	.	.	.	.	.	.	.	.	8g	a
2FF	.	.	.	.	.	.	.	.	.	4cc	te
.	.	.	.	.	.	.	.	.	.	4a	s’a-
=45	=45	=45	=45	=45	=45	=45	=45	=45	=45	=45	=45
2C	.	1r	.	1r	.	1r	.	1r	.	2g	-spet-
2F	.	.	.	.	.	.	.	.	.	2f	-ta
=46	=46	=46	=46	=46	=46	=46	=46	=46	=46	=46	=46
2BB-y	.	1r	.	1r	.	1r	.	1r	.	4r	.
.	.	.	.	.	.	.	.	.	.	4ff	Che
2C	.	.	.	.	.	.	.	.	.	8ee-X	tua
.	.	.	.	.	.	.	.	.	.	8dd	l’in-
.	.	.	.	.	.	.	.	.	.	8cc	-giu-
.	.	.	.	.	.	.	.	.	.	8b-y	-ria
=47	=47	=47	=47	=47	=47	=47	=47	=47	=47	=47	=47
2D	.	1r	.	1r	.	1r	.	1r	.	2a	fu
2BB-y	.	.	.	.	.	.	.	.	.	[2dd	l’al-
=48	=48	=48	=48	=48	=48	=48	=48	=48	=48	=48	=48
2GG	.	1r	.	1r	.	1r	.	1r	.	4dd]	.
.	.	.	.	.	.	.	.	.	.	8.b-y	-ta
.	.	.	.	.	.	.	.	.	.	16a	ven-
2D	.	.	.	.	.	.	.	.	.	2a	-det-
=49	=49	=49	=49	=49	=49	=49	=49	=49	=49	=49	=49
2G	.	1r	.	2r	.	4r	.	1r	.	2g	-ta,
.	.	.	.	.	.	4G	a	.	.	.	.
2F	.	.	.	4r	.	4.c	te,	.	.	2r	.
.	.	.	.	4F	a	.	.	.	.	.	.
.	.	.	.	.	.	8A	a	.	.	.	.
=50	=50	=50	=50	=50	=50	=50	=50	=50	=50	=50	=50
4BB-y	.	1r	.	4.B-y	te,	4.d	te,	1r	.	1r	.
4E-X	.	.	.	.	.	.	.	.	.	.	.
.	.	.	.	8G	<a	8B-y	<a	.	.	.	.
4C	-	.	.	4c	te>	4e-X	te>	.	.	.	.
4D	6	.	.	4B-y	s’a-	4d	s’a-	.	.	.	.
=51	=51	=51	=51	=51	=51	=51	=51	=51	=51	=51	=51
2F	.	1r	.	4B-y	-spet-	2c	-spet-	1r	.	1r	.
.	.	.	.	4A	.	.	.	.	.	.	.
2BB-y	.	.	.	2B-y	-ta	2d	-ta	.	.	.	.
=52	=52	=52	=52	=52	=52	=52	=52	=52	=52	=52	=52
2BB-y	.	1r	.	1r	.	4r	.	4r	.	1r	.
.	.	.	.	.	.	4d	Che	4f	Che	.	.
2C	-	.	.	.	.	8c	tua	8e-X	tua	.	.
.	.	.	.	.	.	8B-y	l’in-	8d	l’in-	.	.
.	.	.	.	.	.	8A	-giu-	8c	-giu-	.	.
.	.	.	.	.	.	8G	-ria	8B-y	-ria	.	.
=53	=53	=53	=53	=53	=53	=53	=53	=53	=53	=53	=53
2D	.	1r	.	1r	.	4F	fu	4A	fu	1r	.
.	.	.	.	.	.	4A	l’al-	2f	l’al-	.	.
4BB-y	.	.	.	.	.	8.B-yL	-ta	.	.	.	.
.	.	.	.	.	.	16cJ	.	.	.	.	.
4GG	.	.	.	.	.	8.dL	.	[4g	-ta	.	.
.	.	.	.	.	.	16eJ	.	.	.	.	.
=54	=54	=54	=54	=54	=54	=54	=54	=54	=54	=54	=54
1AA	#	1r	.	1r	.	4c#X	.	4g]	.	1r	.
.	.	.	.	.	.	4d	ven-	4f	ven-	.	.
.	.	.	.	.	.	4d	-det-	2e	-det-	.	.
.	.	.	.	.	.	4c#i	.	.	.	.	.
=55	=55	=55	=55	=55	=55	=55	=55	=55	=55	=55	=55
4D	.	4r	.	1r	.	2d	-ta,	2d	-ta,	4r	.
4G	.	4G	Che	.	.	.	.	.	.	4b-y	Che
8FL	.	8F	tua	.	.	2r	.	4r	.	8a	tua
8EJ	.	8E	l’in-	.	.	.	.	.	.	8g	l’in-
8DL	.	8D	-giu-	.	.	.	.	4A	Che	8f	-giu-
8CJ	.	8C	-ria	.	.	.	.	.	.	8e	-ria
=56	=56	=56	=56	=56	=56	=56	=56	=56	=56	=56	=56
2BB-y	.	2BB-y	fu	4r	.	4r	.	8d	tua	2d	fu
.	.	.	.	.	.	.	.	8c	l’in-	.	.
.	.	.	.	4d	Che	4f	Che	8B-y	-giu-	.	.
.	.	.	.	.	.	.	.	8A	-ria	.	.
2C	-	2C	l’al-	8c	tua	8e-X	tua	4G	fu	2r	.
.	.	.	.	8B-y	l’in-	8d	l’in-	.	.	.	.
.	.	.	.	8A	-giu-	8c	-giu-	[4c	l’al-	.	.
.	.	.	.	8G	-ria	8B-y	-ria	.	.	.	.
=57	=57	=57	=57	=57	=57	=57	=57	=57	=57	=57	=57
2D	7:6	2D	-ta	4F	fu	4A	fu	4c]	.	2dd	l’al-
.	.	.	.	2B-y	l’al-	2d	l’al-	4B-y	-ta,	.	.
2E-X	6	2E-X	ven-	.	.	.	.	4r	.	4g	-ta,
.	.	.	.	[4c	-ta	4G	-ta	4G	l’al-	4cc	l’al-
=58	=58	=58	=58	=58	=58	=58	=58	=58	=58	=58	=58
1D	#	1D	-det-	4c]	.	4F#X	ven-	4A	-ta	4a	-ta
.	.	.	.	4B-y	ven-	2G	-det-	4B-y	ven-	4g	ven-
.	.	.	.	2A	-det-	.	.	2d	-det-	2a	-det-
.	.	.	.	.	.	4F#X	.	.	.	.	.
=59	=59	=59	=59	=59	=59	=59	=59	=59	=59	=59	=59
1GG;l	.	1GG;l	-ta.	1G;l	-ta.	1G;l	-ta.	1d;l	-ta.	1bnX;l	-ta.
==	==	==	==	==	==	==	==	==	==	==	==
*-	*-	*-	*-	*-	*-	*-	*-	*-	*-	*-	*-
!!!system-decoration: [(s1)(s2)(s3)(s4)(s5)]s6
!!!RDF**kern: > = above
!!!RDF**kern: i = editorial accidental
!!!RDF**kern: l = terminal long
!!!ENC: Emiliano Ricciardi
!!!END: 2019
!!!EED: Mazzetti, Marcello; Ticli, Livio
!!!EEV: 2019/06/12
!!!YEC: Copyright 2018 Emiliano Ricciardi, All Rights Reserved
!!!ONB: Translated from MusicXML on 2019/06/12
!!@@BEGIN:	VERSEDATA
!!@CATALOGNUM:	Tsg16065
!!@LAST_MODIFIED: 2020/07/12
!!@TITLE:		Misera Armida, allor dovevi, e degno
!!@CANTO:		XVI
!!@OTTAVA:	65
!!@MANUSRC:	G-Al, G-Au, G-Br<sub>1</sub>, G-Br<sub>2</sub>, G-Cv, G-Es<sub>1</sub>, G-Es<sub>2</sub>, G-Es<sub>3</sub>, G-F, G-Fr, G-Fr<sub>1</sub>, G-Fr<sub>2</sub>, G-Mc<sub>1</sub>, G-Mg, G-Mr, G-Mt, G-N, G-Ol
!!@PRINTSRC:	G-1580CM, G-1581B, G-1581CV, G-1581R, G-1581MR, G-1581P, G-1581V, G-1581V<sub>bis</sub>, G-1582C, G-1582M, G-1582MC, G-1582P, G-1582SC, G-1582SC<sub>bis</sub>, G-1583S, G-1584O, G-1584S, G-1585C, G-1585S, G-1588S, G-1589S, G-1590B, G-1590S, G-1592S, G-1593S, G-1594C, G-1595C, G-1597C, G-1598C, G-1599C, G-1600C, G-1600S, G-1601C, G-1601R, G-1602C, G-1604C, G-1604Cl, G-1604F, G-1604P, G-1606B, G-1606B<sub>bis</sub>, G-1606L, G-1607ZR, G-1608DP, G-1609GC, G-1610M, G-1611S, G-1611V, G-1612P, G-1613M, G-1613P, G-1613V, G-1615P, G-1616M, G-1617P, G-1619B, G-1619V, G-1620M, G-1620S, G-1621R, G-1624I, G-1624MT, G-1625C, G-1625S, G-1625SS, G-1626C, G-1626Co, G-1627M, G-1628T, G-1628Tu, G-1630L, G-1630T, G-1632FT, G-1639CF, G-1642M, G-1643I, G-1644P, G-1644S
!!@@BEGIN:	VERSES
!!@ABOUTIT:
!!@ABOUTEN:
!!@EDITOR:	Angelo Solerti
!!@EDITION_TITLE: Gerusalemme liberata. Poema eroico di Torquato Tasso. Edizione critica sui manoscritti e le prime stampe.
!!@EDITION_LOC:	Florence
!!@EDITION_PUB:	G. Barbera
!!@EDITION_DATE:  1895
!!@EDITION_VOL:
!!@EDITION_PAGE:
!!@TRANSLATOR:	Emiliano Ricciardi and Amyrose McCue Gill
!!@VERSE:
!!	Misera Armida, allor dovevi, e degno
!!	Ben era, in quel crudele incrudelire
!!	Che tu prigion l’avesti: or tardo sdegno
!!	T’infiamma, e movi neghittosa a l’ire.
!!	Pur se beltà può nulla, o scaltro ingegno,
!!	Non fia vuoto d’effetto il mio desire.
!!	O mia sprezzata forma, a te s’aspetta
!!	(Ché tua l’ingiuria fu) l’alta vendetta.
!!@TVERSE:
!!	Miserable Armida, thus you had to, and deserving
!!	Well he was, in that cruelty become cruel
!!	For you had [cruelty] as your prison: now belated scorn
!!	Inflames you, and you move slowly towards ire.
!!	Indeed if beauty can [do] nothing, nor cunning wit,
!!	May my desire be not empty of effect.
!!	O my disparaged form, for you awaits
!!	(For the injury was yours) lofty revenge.
!!@@END:		VERSES
!!@OTHER_CRIT_ED:  Torquato Tasso, <i>Gerusalemme liberata</i>, ed. Lanfranco Caretti, 2 vols. (Bari: Laterza, 1967).
!!@ATTRIBUTION_ABOUT:
!!@DATING:	mid-1560s through 1570s
!!@DEDICATEE:	Duke Alfonso II d'Este
!!@COMMENTARY:
!!@@END:		VERSEDATA
!!@@BEGIN: SETTING
!!@CATALOGNUM:	Tsg16065b
!!@CANTO:		XVI
!!@OTTAVA:	65
!!@TITLE:	Misera Armida, allor dovevi, e degno
!!@SETTINGTITLE: Misera Armida, all'hor dovevi, e degno
!!@COMPOSER:	Eredi, Francesco
!!@PARTS:		8 of 9
!!@PRINCEPSTITLE:	L'Armida del Tasso posta in musica a cinque voci, col suo basso per suonare
!!@PRINCEPSLOC:	Venice
!!@NORMLOC:	Venice
!!@NORMPUB:	Alessandro Vincenti
!!@NORMPUBSHORT:	A. Vincenti
!!@PRINCEPSPUB:	Alessandro Vincenti
!!@PRINCEPSYEAR:	1629
!!@PRINCEPSRISM:	E 741
!!@OVOICES:	5+bc
!!@EXTANTVOICES:	5+bc
!!@OMENSURATION:	C
!!@OCLEFS:	C1,C3,C4,C4,F4,F4
!!@OTIME:		
!!@OKEYSIG:	b-
!!@FINAL:		(G)G
!!@TIMPEDITOR:	Mazzetti, Marcello; Ticli, Livio
!!@REPRINTS:	
!!@@END: SETTING
